svgs/regular/chart-waterfall.svg

<svg xmlns="http://www.w3.org/2000/svg" viewBox="0 0 512 512"><!--! Font Awesome Pro 6.4.2 by @fontawesome - https://fontawesome.com License - https://fontawesome.com/license (Commercial License) Copyright 2023 Fonticons, Inc. --><path d="M24 32c13.3 0 24 10.7 24 24V408c0 13.3 10.7 24 24 24H488c13.3 0 24 10.7 24 24s-10.7 24-24 24H72c-39.8 0-72-32.2-72-72V56C0 42.7 10.7 32 24 32zM168 224c13.3 0 24 10.7 24 24v80c0 13.3-10.7 24-24 24s-24-10.7-24-24V248c0-13.3 10.7-24 24-24zm120-72v80c0 13.3-10.7 24-24 24s-24-10.7-24-24V152c0-13.3 10.7-24 24-24s24 10.7 24 24zm72-88c13.3 0 24 10.7 24 24v80c0 13.3-10.7 24-24 24s-24-10.7-24-24V88c0-13.3 10.7-24 24-24zM480 88V328c0 13.3-10.7 24-24 24s-24-10.7-24-24V88c0-13.3 10.7-24 24-24s24 10.7 24 24z"/></svg>

<svg xmlns="http://www.w3.org/2000/svg" viewBox="0 0 512 512"><!--! Font Awesome Pro 6.1.1 by @fontawesome - https://fontawesome.com License - https://fontawesome.com/license (Commercial License) Copyright 2022 Fonticons, Inc. --><path d="M24 32C37.25 32 48 42.75 48 56V408C48 421.3 58.75 432 72 432H488C501.3 432 512 442.7 512 456C512 469.3 501.3 480 488 480H72C32.24 480 0 447.8 0 408V56C0 42.75 10.75 32 24 32zM168 224C181.3 224 192 234.7 192 248V328C192 341.3 181.3 352 168 352C154.7 352 144 341.3 144 328V248C144 234.7 154.7 224 168 224zM288 232C288 245.3 277.3 256 264 256C250.7 256 240 245.3 240 232V152C240 138.7 250.7 128 264 128C277.3 128 288 138.7 288 152V232zM360 64C373.3 64 384 74.75 384 88V168C384 181.3 373.3 192 360 192C346.7 192 336 181.3 336 168V88C336 74.75 346.7 64 360 64zM480 328C480 341.3 469.3 352 456 352C442.7 352 432 341.3 432 328V88C432 74.75 442.7 64 456 64C469.3 64 480 74.75 480 88V328z"/></svg>
